X: 1
T: A Daisy In December
M: 3/4
L: 1/8
R: waltz
K: Dmin
z2z de2 | f2-f gf2 | e4 c2 | d2-d cB2 | A4 G2 | F2 G z2F | B4 c2 | A4-A2 |
z2z de2 | f2-f gf2 | e4 c2 | d2-d cB2 | A4 G2 | A2-A BA2 | _d4 e2 | d4-d2 :|
d2 e2 f2 | g2-g ag2 | f2-f g/f/ e2 | f2 A2 _d2 | d4 f2 | g2-g ag2 | f4 e2 |d4 -d2 | 
d2 e2 f2 | g2-g ag2 | f2-f g/f/ e2 | a4 e2 | d4 -dA | B2 c2 d2| b4 f2|e4 -e2|]
